icons/AffinityPublisher.svg

<svg width="16" height="16" viewBox="0 0 16 16" fill="none" xmlns="http://www.w3.org/2000/svg">
<g clip-path="url(#clip0_1447_1830)">
<path fill-rule="evenodd" clip-rule="evenodd" d="M14.4375 0C15.2999 0 16 0.700124 16 1.5625V14.4375C16 15.2998 15.2999 16 14.4375 16H1.5625C0.700126 16 0 15.2998 0 14.4375V1.5625C0 0.700124 0.700126 0 1.5625 0H14.4375ZM3.25544 7.85393L7.28357 14.8281H1.797C1.452 14.8281 1.172 14.5481 1.172 14.2031V11.461L3.25544 7.85393ZM7.89841 14.8281H10.2209L4.72419 5.31107L3.88169 6.76904C3.68419 7.11094 3.68419 7.53225 3.88184 7.8741C4.88981 9.61738 7.89841 14.8281 7.89841 14.8281ZM10.8358 14.8281H13.1583L6.19278 2.76847L5.06559 4.71987L10.8358 14.8281ZM14.8283 14.2031V12.634L8.20794 1.17188H7.11497L6.50013 2.23626L13.7731 14.8281H14.2033C14.5483 14.8281 14.8283 14.5481 14.8283 14.2031ZM8.82263 1.17188H14.2033C14.5483 1.17188 14.8283 1.45192 14.8283 1.79687V11.5696L8.82263 1.17188Z" fill="#FF00FF"/>
</g>
<defs>
<clipPath id="clip0_1447_1830">
<rect width="16" height="16" fill="white"/>
</clipPath>
</defs>
</svg>

<svg width="16" height="16" fill="none" xmlns="http://www.w3.org/2000/svg"><g clip-path="url(#a)"><path fill-rule="evenodd" clip-rule="evenodd" d="M14.438 0C15.3 0 16 .7 16 1.563v12.874C16 15.3 15.3 16 14.437 16H1.563C.7 16 0 15.3 0 14.437V1.563C0 .7.7 0 1.563 0h12.874zM3.255 7.854l4.029 6.974H1.797a.625.625 0 0 1-.625-.625v-2.742l2.083-3.607zm4.643 6.974h2.323L4.724 5.311 3.882 6.77a1.104 1.104 0 0 0 0 1.105c1.008 1.743 4.016 6.954 4.016 6.954zm2.938 0h2.322L6.193 2.768 5.066 4.72l5.77 10.108zm3.992-.625v-1.569L8.208 1.172H7.115L6.5 2.236l7.273 12.592h.43c.345 0 .625-.28.625-.625zM8.823 1.172h5.38c.345 0 .625.28.625.625v9.773L8.823 1.172z" fill="#F0F"/></g><defs><clipPath id="a"><path fill="#fff" d="M0 0h16v16H0z"/></clipPath></defs></svg>
